X: 12162
T: Oer the Moor to Katie
%R: air, strathspey
B: James Oswald "The Caledonian Pocket Companion" v.1 b.1 p.16 #2
Z: 2020 John Chambers <jc:trillian.mit.edu>
M: C
L: 1/8
K: D
|:\
A3G {G2}TF3E | D2(d>c) {c}B3A | G2(g>f) {f}Te3d | (c>d)(e>f) e4 |\
A3G {G}F3E | D2d>c {c}TB3A | G2g>f {f}e3d | (A>B) (d>e) d4 :|
|:\
f2e>a d2c>a | (f>e)(A>c) B2(c>d) | e2(f>^g) a>fB>e | c2(TB>A) A4 |\
d3=c {c}TB3A | G2g>f {f}e3d | A2(a>g) (f>d)(B>c) | d2(D>E) D4 :|


